X: 35505
T: Rue Des Dunes
R: jig
M: 6/8
K: Eminor
|B>dc B>AG|A>cB A>FD|G>FE ~B3|B>dc B>AG|A>cB A>FD|G>FG ~E3:|
|:E>GA B>dc|B>gf ~e3|f>fg e>dc|B>AG F>ED|E>GA B>dc|B>gf ~e3|f>fg a<gf|e3 e3:|

